// NOTE: Shader automatically converted from Godot Engine 4.6.1.stable.mono's StandardMaterial3D.

shader_type spatial;
render_mode blend_mix, depth_draw_opaque, cull_back, diffuse_burley, specular_schlick_ggx, world_vertex_coords;

uniform vec4 albedo : source_color;
uniform sampler2D texture_albedo : source_color, filter_linear_mipmap, repeat_enable;
uniform ivec2 albedo_texture_size;
uniform float point_size : hint_range(0.1, 128.0, 0.1);

uniform float roughness : hint_range(0.0, 1.0);
uniform sampler2D texture_metallic : hint_default_white, filter_linear_mipmap, repeat_enable;
uniform vec4 metallic_texture_channel;
uniform sampler2D texture_roughness : hint_roughness_r, filter_linear_mipmap, repeat_enable;

uniform float specular : hint_range(0.0, 1.0, 0.01);
uniform float metallic : hint_range(0.0, 1.0, 0.01);

uniform sampler2D texture_normal : hint_roughness_normal, filter_linear_mipmap, repeat_enable;
uniform float normal_scale : hint_range(-16.0, 16.0);

uniform vec3 uv1_scale;
uniform vec3 uv1_offset;
uniform vec3 uv2_scale;
uniform vec3 uv2_offset;

uniform float min_height;
uniform float max_height;
uniform sampler2D height_albedo : source_color, filter_linear_mipmap, repeat_disable;


float invLerp(float start, float end, float t)
{
	return (t - start) / (end - start);
}

void vertex() {
	UV = UV * uv1_scale.xy + uv1_offset.xy;
}

void fragment() {
	vec2 base_uv = UV;

	vec4 albedo_tex = texture(texture_albedo, base_uv);
	vec3 heightColor = texture(height_albedo, vec2(invLerp(min_height, max_height, -(INV_PROJECTION_MATRIX * INV_VIEW_MATRIX * vec4(VERTEX, 1.0)).y), 0.0)).rgb;
	ALBEDO = heightColor * albedo_tex.rgb;
	//ALBEDO = -(INV_PROJECTION_MATRIX * INV_VIEW_MATRIX * vec4(VERTEX, 1.0)).yyy;

	float metallic_tex = dot(texture(texture_metallic, base_uv), metallic_texture_channel);
	METALLIC = metallic_tex * metallic;
	SPECULAR = specular;

	vec4 roughness_texture_channel = vec4(1.0, 0.0, 0.0, 0.0);
	float roughness_tex = dot(texture(texture_roughness, base_uv), roughness_texture_channel);
	ROUGHNESS = roughness_tex * roughness;

	// Normal Map: Enabled
	NORMAL_MAP = texture(texture_normal, base_uv).rgb;
	NORMAL_MAP_DEPTH = normal_scale;
}
